Default.style/clothing_store.svg

<svg width="33" height="26" xmlns="http://www.w3.org/2000/svg"><path d="M32.307 24.312a2.4 2.4 0 0 1-1.688.692H2.403A2.37 2.37 0 0 1 .022 22.66l-.02-.662a2.353 2.353 0 0 1 1.283-2.104l13.755-7.562c.203-2.539.504-2.929 1.46-3.83.834-.789 1.935-1.781 1.939-3.139.005-1.463-.599-2.674-2.429-2.648-1.779.025-2.383 1-2.43 2.68l.002-.029H10.82c0-2.558 1.635-5.362 5.188-5.362 1.86 0 5.237.749 5.188 5.362-.026 2.512-1.466 3.896-2.437 4.812-.482.455-.66 1.355-.728 2.198l13.666 7.617a2.36 2.36 0 0 1 1.271 2.066l.032.572a2.359 2.359 0 0 1-.693 1.681Zm-15.803-8.935L3.002 22.002h26l-12.498-6.625Z" fill="#888" fill-rule="evenodd"/></svg>

<?xml version="1.0" encoding="UTF-8" standalone="no"?>
<svg width="33px" height="26px" viewBox="0 0 33 26" version="1.1" xmlns="http://www.w3.org/2000/svg" xmlns:xlink="http://www.w3.org/1999/xlink" xmlns:sketch="http://www.bohemiancoding.com/sketch/ns">
    <!-- Generator: Sketch 3.2.2 (9983) - http://www.bohemiancoding.com/sketch -->
    <title>cloth-shop</title>
    <desc>Created with Sketch.</desc>
    <defs></defs>
    <g id="p" stroke="none" stroke-width="1" fill="none" fill-rule="evenodd" sketch:type="MSPage">
        <g id="cloth-shop" sketch:type="MSLayerGroup" fill="#888888">
            <path d="M32.307,24.312 C31.86,24.755 31.252,25.004 30.619,25.004 L30.61,25.004 L2.41,25.004 L2.403,25.004 C1.093,25.004 0.03,23.957 0.022,22.66 L0.002,21.998 C-0.003,21.114 0.492,20.302 1.285,19.894 L15.04,12.332 C15.243,9.793 15.544,9.403 16.5,8.502 C17.334,7.713 18.435,6.721 18.439,5.363 C18.444,3.9 17.84,2.689 16.01,2.715 C14.231,2.74 13.627,3.715 13.58,5.395 L13.582,5.366 L10.82,5.366 C10.82,2.808 12.455,0.004 16.008,0.004 C17.868,0.004 21.245,0.753 21.196,5.366 C21.17,7.878 19.73,9.262 18.759,10.178 C18.277,10.633 18.099,11.533 18.031,12.376 L31.697,19.993 C32.47,20.397 32.959,21.19 32.968,22.059 L33,22.631 C33.004,23.26 32.754,23.864 32.307,24.312 L32.307,24.312 Z M16.504,15.377 L3.002,22.002 L29.002,22.002 L16.504,15.377 L16.504,15.377 Z" id="Shape" sketch:type="MSShapeGroup"></path>
        </g>
    </g>
</svg>
